src/images/how-it-works-4.svg

<svg width="114" height="114" fill="none" xmlns="http://www.w3.org/2000/svg"><g clip-path="url(#a)" stroke="#1B383C" stroke-miterlimit="10"><path d="M99.7932 61.8182c-1.0395 7.1736-4.5045 14.3471-10.5683 18.4463-4.1581 2.7328-9.0092 3.7576-13.8602 4.7824-10.7417 2.0496-21.4833 3.2452-32.3982 3.7576-8.6626.3415-17.3252 1.8787-25.1216-3.2452-4.851-3.0744-8.4893-8.0276-10.0486-13.6639-1.0395-3.416-1.2128-7.0028-1.0395-10.5896 0-4.2699.5197-8.5399.8662-12.8099 14.7265-2.2204 30.6657-1.1956 45.5654-2.3912 15.0729-1.5372 29.9726-3.2452 44.8723-5.4655.3465 0 1.0395 0 1.2128.3416.1732.3416 1.7325 13.6639.5197 20.8374Z" fill="#D9D9D9" stroke-width="2"/><path d="M112.614 33.978c.347.6832.52 1.708.347 2.3912-.52 1.1956-1.906 1.708-3.119 2.0496-2.426.5124-5.198.854-5.198.854.174 1.1955-.693 2.2203-1.905 2.2203L3.8116 50.3747c-1.2128.1708-2.2523-.6832-2.2523-1.8788l-.693-5.8072c-.1732-1.1956.693-2.2204 1.9058-2.3912l12.8207-1.0247c.3465-2.562 3.2918-5.6364 5.1975-6.4904 2.4256-1.1956 5.1976-1.3664 7.9696-1.3664 15.5927-.1708 31.3587 1.0248 46.7781-2.0496 1.9058-.3416 3.8116-.854 5.7174-.3416 1.9057.3416 3.6383 2.0496 3.6383 3.9284v.1708l16.8053-1.5372c1.213-.1708 2.252.6832 2.252 1.8788v.5124c1.733-.5124 6.584-1.8788 7.277-1.5372.693.3416 1.213 1.0248 1.386 1.5372Z" fill="#FF9820" stroke-width="2"/><path d="M59.7723 51.5703c-1.5592 1.0248-2.4255 2.7328-2.5988 4.6116-.1732 1.8788.1733 3.5867.8663 5.2947.693 2.2204 1.9058 4.27 3.4651 6.1488 1.5592 1.708 3.8115 3.0744 5.8905 2.2204 1.2128-.5124 2.0791-1.708 2.4256-2.9036.3465-1.1956.3465-2.562.1732-3.9284-.5197-3.9284-4.3313-15.0303-10.2219-11.4435ZM42.2736 53.2783c-2.079.854-3.2918 3.2452-3.465 5.4655 0 2.2204.8663 4.4408 2.079 6.3196 1.0395 1.708 2.2523 3.416 3.9848 4.6116 1.7325 1.1956 3.9848 1.5372 5.8906.854.693-.3416 1.386-.6832 1.9058-1.3664.693-1.0248.8662-2.3912.693-3.5868-.3465-4.6116-4.3313-15.0303-11.0882-12.2975Z" fill="#fff" stroke-width="2"/><path d="M43.6597 58.9146c.5198 1.5372 1.5593 2.7328 2.5988 4.0992.8663 1.1956 1.9058 2.562 3.6383 3.0744.3465.1708.693.1708 1.2128 0 .5197-.1708.693-.854.693-1.1956.3465-2.3912 0-4.9532-1.0395-7.0027-.5198-1.1956-1.2128-2.3912-2.4256-3.2452-.8662-.6832-3.465-1.5372-4.6778-.5124-1.2127 1.0248-.3465 3.7576 0 4.7823ZM62.1976 52.7659c-.5198.854-.3465 1.8788-.1733 2.7327.693 3.2452 2.4256 6.4904 4.8511 8.8816.3465.3416 1.0395.6832 1.386.3416.1733-.1708.1733-.3416.1733-.5124.693-2.9036-.3465-5.978-1.2128-8.8816-.693-1.5371-3.2918-5.9779-5.0243-2.5619Z" fill="#1B383C"/><path d="M55.6143 75.8237c.3465 1.0248.693 1.8788 1.386 2.7328.693.6832 1.7325 1.3664 2.772 1.1956 1.0395 0 1.9058-.6832 2.4255-1.5372.5198-.854.693-1.8788.5198-2.9036M13.3404 60.6226c-.1732 4.6116-.1732 9.2232 1.9058 13.3223.5197 1.0248 1.2128 2.0496 2.079 3.0744 1.7325 2.2204 3.9848 4.0992 6.5836 5.124M76.058 35.5152c-8.3161 1.5372-16.8055 2.2204-25.2948 2.2204M35.6899 38.7603c.3465-.1708.6931-.1708.8663-.1708 1.7325 0 3.6383.1708 5.3708.1708" stroke-width="2"/></g><path d="M95.764 9.272a13.9524 13.9524 0 0 0-3.3584 3.3267 13.8344 13.8344 0 0 0-1.4791 2.6443 14.2814 14.2814 0 0 0-1.6312-2.8578l-.0039-.0053a9.766 9.766 0 0 0-3.3146-2.8204c1.2998-.7548 2.4121-1.8223 3.2632-2.9363l.0077-.01.0074-.0103a14.2375 14.2375 0 0 0 1.6099-2.869 17.9064 17.9064 0 0 0 2.5114 3.4915l.0103.0111.0106.0109c.6492.664 1.428 1.4404 2.3667 2.0246ZM42.3719 87.2053c-4.4389 2.5952-8.282 6.0966-11.2673 10.2819-2.5066 3.5138-4.3523 7.4318-5.4633 11.5648-1.1924-4.353-3.0837-8.537-5.87-12.1429-2.995-3.8757-7.0835-7.0543-11.7558-8.6964 4.6813-1.7633 8.7359-5.2945 11.6673-9.1426 2.618-3.4367 4.4177-7.3888 5.5847-11.5059.2493.7598.5546 1.5031.9143 2.2237l.0014.0027a47.7268 47.7268 0 0 0 7.4648 10.81l.0099.0109.0103.0105c2.4345 2.5027 5.2401 5.2178 8.7037 6.5833Z" fill="#FF9820" stroke="#1C383C" stroke-width="2"/><defs><clipPath id="a"><path fill="#fff" transform="translate(0 28)" d="M0 0h114v62H0z"/></clipPath></defs></svg>

<svg width="114" height="114" viewBox="0 0 114 114" fill="none" xmlns="http://www.w3.org/2000/svg">
<g clip-path="url(#clip0_521_591)">
<path d="M99.7932 61.8182C98.7537 68.9918 95.2887 76.1653 89.2249 80.2645C85.0668 82.9973 80.2157 84.0221 75.3647 85.0469C64.623 87.0965 53.8814 88.2921 42.9665 88.8045C34.3039 89.146 25.6413 90.6832 17.8449 85.5593C12.9939 82.4849 9.35556 77.5317 7.79629 71.8954C6.75677 68.4794 6.58352 64.8926 6.75677 61.3058C6.75677 57.0359 7.27653 52.7659 7.62303 48.4959C22.3495 46.2755 38.2887 47.3003 53.1884 46.1047C68.2613 44.5675 83.161 42.8595 98.0607 40.6392C98.4072 40.6392 99.1002 40.6392 99.2735 40.9808C99.4467 41.3224 101.006 54.6447 99.7932 61.8182Z" fill="#D9D9D9" stroke="#1B383C" stroke-width="2" stroke-miterlimit="10"/>
<path d="M112.614 33.978C112.961 34.6612 113.134 35.686 112.961 36.3692C112.441 37.5648 111.055 38.0772 109.842 38.4188C107.416 38.9312 104.644 39.2728 104.644 39.2728C104.818 40.4683 103.951 41.4931 102.739 41.4931L3.8116 50.3747C2.59884 50.5455 1.55932 49.6915 1.55932 48.4959L0.866314 42.6887C0.693061 41.4931 1.55932 40.4683 2.77209 40.2975L15.5928 39.2728C15.9393 36.7108 18.8846 33.6364 20.7903 32.7824C23.2159 31.5868 25.9879 31.416 28.7599 31.416C44.3526 31.2452 60.1186 32.4408 75.538 29.3664C77.4438 29.0248 79.3496 28.5124 81.2554 29.0248C83.1611 29.3664 84.8937 31.0744 84.8937 32.9532C84.8937 32.9532 84.8937 32.9532 84.8937 33.124L101.699 31.5868C102.912 31.416 103.951 32.27 103.951 33.4656V33.978C105.684 33.4656 110.535 32.0992 111.228 32.4408C111.921 32.7824 112.441 33.4656 112.614 33.978Z" fill="#FF9820" stroke="#1B383C" stroke-width="2" stroke-miterlimit="10"/>
<path d="M59.7723 51.5703C58.2131 52.5951 57.3468 54.3031 57.1735 56.1819C57.0003 58.0607 57.3468 59.7686 58.0398 61.4766C58.7328 63.697 59.9456 65.7466 61.5049 67.6254C63.0641 69.3334 65.3164 70.6998 67.3954 69.8458C68.6082 69.3334 69.4745 68.1378 69.821 66.9422C70.1675 65.7466 70.1675 64.3802 69.9942 63.0138C69.4745 59.0854 65.6629 47.9835 59.7723 51.5703Z" fill="white" stroke="#1B383C" stroke-width="2" stroke-miterlimit="10"/>
<path d="M42.2736 53.2783C40.1946 54.1323 38.9818 56.5235 38.8086 58.7438C38.8086 60.9642 39.6749 63.1846 40.8876 65.0634C41.9271 66.7714 43.1399 68.4794 44.8724 69.675C46.6049 70.8706 48.8572 71.2122 50.763 70.529C51.456 70.1874 52.149 69.8458 52.6688 69.1626C53.3618 68.1378 53.535 66.7714 53.3618 65.5758C53.0153 60.9642 49.0305 50.5455 42.2736 53.2783Z" fill="white" stroke="#1B383C" stroke-width="2" stroke-miterlimit="10"/>
<path d="M43.6597 58.9146C44.1795 60.4518 45.219 61.6474 46.2585 63.0138C47.1248 64.2094 48.1643 65.5758 49.8968 66.0882C50.2433 66.259 50.5898 66.259 51.1096 66.0882C51.6293 65.9174 51.8026 65.2342 51.8026 64.8926C52.1491 62.5014 51.8026 59.9394 50.7631 57.8899C50.2433 56.6943 49.5503 55.4987 48.3375 54.6447C47.4713 53.9615 44.8725 53.1075 43.6597 54.1323C42.447 55.1571 43.3132 57.8899 43.6597 58.9146Z" fill="#1B383C" stroke="#1B383C" stroke-miterlimit="10"/>
<path d="M62.1976 52.7659C61.6778 53.6199 61.8511 54.6447 62.0243 55.4986C62.7173 58.7438 64.4499 61.989 66.8754 64.3802C67.2219 64.7218 67.9149 65.0634 68.2614 64.7218C68.4347 64.551 68.4347 64.3802 68.4347 64.2094C69.1277 61.3058 68.0882 58.2314 67.2219 55.3278C66.5289 53.7907 63.9301 49.3499 62.1976 52.7659Z" fill="#1B383C" stroke="#1B383C" stroke-miterlimit="10"/>
<path d="M55.6143 75.8237C55.9608 76.8485 56.3073 77.7025 57.0003 78.5565C57.6933 79.2397 58.7328 79.9229 59.7723 79.7521C60.8118 79.7521 61.6781 79.0689 62.1978 78.2149C62.7176 77.3609 62.8908 76.3361 62.7176 75.3113" stroke="#1B383C" stroke-width="2" stroke-miterlimit="10"/>
<path d="M13.3404 60.6226C13.1672 65.2342 13.1672 69.8458 15.2462 73.9449C15.7659 74.9697 16.459 75.9945 17.3252 77.0193C19.0577 79.2397 21.31 81.1185 23.9088 82.1433" stroke="#1B383C" stroke-width="2" stroke-miterlimit="10"/>
<path d="M76.058 35.5152C67.7419 37.0524 59.2525 37.7356 50.7632 37.7356" stroke="#1B383C" stroke-width="2" stroke-miterlimit="10"/>
<path d="M35.6899 38.7603C36.0364 38.5895 36.383 38.5895 36.5562 38.5895C38.2887 38.5895 40.1945 38.7603 41.927 38.7603" stroke="#1B383C" stroke-width="2" stroke-miterlimit="10"/>
</g>
<path d="M95.764 9.27195C94.4659 10.1806 93.3289 11.3044 92.4056 12.5987C91.8146 13.4272 91.3194 14.3142 90.9265 15.243C90.4968 14.2353 89.9503 13.2761 89.2953 12.3852L89.2953 12.3852L89.2914 12.3799C88.4073 11.1939 87.2706 10.2345 85.9768 9.55954C87.2766 8.80471 88.3889 7.73719 89.24 6.62325L89.2477 6.61317L89.2551 6.60289C89.9037 5.70771 90.4431 4.74465 90.865 3.73395C91.5575 4.99249 92.4006 6.16478 93.3764 7.22536L93.3867 7.23652L93.3973 7.24736C94.0465 7.91146 94.8253 8.68783 95.764 9.27195Z" fill="#FF9820" stroke="#1C383C" stroke-width="2"/>
<path d="M42.3719 87.2053C37.933 89.8005 34.0899 93.3019 31.1046 97.4872C28.598 101.001 26.7523 104.919 25.6413 109.052C24.4489 104.699 22.5576 100.515 19.7713 96.9091C16.7763 93.0334 12.6878 89.8548 8.01555 88.2127C12.6968 86.4494 16.7514 82.9182 19.6828 79.0701C22.3008 75.6334 24.1005 71.6813 25.2675 67.5642C25.5168 68.324 25.8221 69.0673 26.1818 69.7879L26.1832 69.7906C28.1583 73.7165 30.6702 77.354 33.648 80.6006L33.6579 80.6115L33.6682 80.622C36.1027 83.1247 38.9083 85.8398 42.3719 87.2053Z" fill="#FF9820" stroke="#1C383C" stroke-width="2"/>
<defs>
<clipPath id="clip0_521_591">
<rect width="114" height="62" fill="white" transform="translate(0 28)"/>
</clipPath>
</defs>
</svg>
